coinbase.svg

<svg width="84" height="19" viewBox="0 0 84 19" fill="none" xmlns="http://www.w3.org/2000/svg">
<path d="M5.74426 18.4574C3.02099 18.4574 0.355362 16.4979 0.355362 12.0746C0.355362 7.63686 3.02099 5.70618 5.74426 5.70618C7.08428 5.70618 8.13612 6.05197 8.88538 6.54185L8.06407 8.34286C7.55977 7.98266 6.81051 7.75213 6.06125 7.75213C4.41865 7.75213 2.92013 9.04886 2.92013 12.0457C2.92013 15.0426 4.46187 16.3682 6.06125 16.3682C6.81051 16.3682 7.55977 16.1377 8.06407 15.7775L8.88538 17.6217C8.1073 18.1404 7.08428 18.4574 5.74426 18.4574Z" fill="white"/>
<path d="M15.1241 18.4574C11.6516 18.4574 9.73524 15.7054 9.73524 12.0746C9.73524 8.44372 11.6372 5.70618 15.1241 5.70618C18.5967 5.70618 20.513 8.42931 20.513 12.0746C20.513 15.7054 18.5967 18.4574 15.1241 18.4574ZM15.1241 7.68009C13.1934 7.68009 12.2424 9.40906 12.2424 12.0457C12.2424 14.6824 13.1934 16.4258 15.1241 16.4258C17.0549 16.4258 18.0059 14.6824 18.0059 12.0457C18.0059 9.40906 17.0549 7.68009 15.1241 7.68009Z" fill="white"/>
<path d="M23.8561 3.73225C23.0348 3.73225 22.372 3.0983 22.372 2.32026C22.372 1.54222 23.0348 0.908264 23.8561 0.908264C24.6774 0.908264 25.3402 1.54222 25.3402 2.32026C25.3402 3.0983 24.663 3.73225 23.8561 3.73225ZM22.6025 5.9511H25.1096V18.198H22.6025V5.9511Z" fill="white"/>
<path d="M34.9363 18.198V10.0286C34.9363 8.60221 34.0717 7.7089 32.3715 7.7089C31.4637 7.7089 30.628 7.86739 30.1237 8.06911V18.2124H27.6454V6.57066C28.8701 6.06638 30.4407 5.70618 32.3571 5.70618C35.7864 5.70618 37.4434 7.20462 37.4434 9.79808V18.2124H34.9363" fill="white"/>
<path d="M44.0271 18.4574C42.4421 18.4574 40.8715 18.0684 39.9061 17.5929V0.360779H42.3845V6.26811C42.9752 5.99435 43.9262 5.76382 44.7763 5.76382C47.9319 5.76382 50.0788 8.0403 50.0788 11.7864C50.0788 16.4114 47.6869 18.4574 44.0271 18.4574ZM44.3441 7.70892C43.6668 7.70892 42.86 7.86741 42.3845 8.11235V16.1521C42.7447 16.3106 43.4507 16.4691 44.1567 16.4691C46.1307 16.4691 47.586 15.1003 47.586 11.9737C47.6004 9.29381 46.3325 7.70892 44.3441 7.70892Z" fill="white"/>
<path d="M56.8219 18.4574C53.3061 18.4574 51.5194 17.031 51.5194 14.6104C51.5194 11.1957 55.1504 10.5905 58.8535 10.3888V9.61078C58.8535 8.06911 57.8305 7.5216 56.2599 7.5216C55.1072 7.5216 53.6952 7.8818 52.8739 8.27082L52.2399 6.57066C53.2197 6.13842 54.8767 5.70618 56.5193 5.70618C59.4443 5.70618 61.231 6.84442 61.231 9.87012V17.5929C60.352 18.0683 58.5509 18.4574 56.8219 18.4574ZM58.8679 12.0457C56.3608 12.1754 53.8681 12.3915 53.8681 14.5672C53.8681 15.8639 54.8623 16.6563 56.7498 16.6563C57.5423 16.6563 58.4789 16.5267 58.8679 16.3394V12.0457Z" fill="white"/>
<path d="M66.8221 18.4574C65.3957 18.4574 63.8971 18.0683 63.0038 17.5929L63.8395 15.691C64.4735 16.08 65.8135 16.4834 66.7501 16.4834C68.0901 16.4834 68.9835 15.8207 68.9835 14.7977C68.9835 13.6883 68.0469 13.256 66.8077 12.795C65.1651 12.1754 63.3352 11.4262 63.3352 9.13531C63.3352 7.11817 64.9058 5.70618 67.629 5.70618C69.1131 5.70618 70.3379 6.06638 71.2024 6.57066L70.4243 8.29964C69.8768 7.95384 68.7817 7.57923 67.9028 7.57923C66.606 7.57923 65.8856 8.25641 65.8856 9.14972C65.8856 10.2591 66.7933 10.6482 68.0037 11.1092C69.7039 11.7432 71.5914 12.4492 71.5914 14.8409C71.577 17.0166 69.8912 18.4574 66.8221 18.4574Z" fill="white"/>
<path d="M83.6685 12.0169L75.5275 13.1552C75.7725 15.3596 77.2133 16.469 79.2738 16.469C80.4986 16.469 81.8242 16.1665 82.6599 15.7198L83.3803 17.5785C82.4293 18.0828 80.7867 18.443 79.1009 18.443C75.2393 18.443 73.078 15.9648 73.078 12.0602C73.078 8.31405 75.1673 5.69177 78.5966 5.69177C81.7809 5.69177 83.6685 7.78095 83.6685 11.0804C83.6973 11.383 83.6973 11.7 83.6685 12.0169ZM78.5822 7.5216C76.6802 7.5216 75.4266 8.97682 75.3834 11.5271L81.3199 10.7058C81.291 8.5734 80.2104 7.5216 78.5822 7.5216Z" fill="white"/>
</svg>

<svg xmlns="http://www.w3.org/2000/svg" width="84" height="19" fill="#000"><path d="M5.744 18.457c-2.723 0-5.389-1.959-5.389-6.383 0-4.438 2.666-6.368 5.389-6.368 1.34 0 2.392.346 3.141.836l-.821 1.801c-.504-.36-1.254-.591-2.003-.591-1.643 0-3.141 1.297-3.141 4.294s1.542 4.323 3.141 4.323c.749 0 1.499-.231 2.003-.591l.821 1.844c-.778.519-1.801.836-3.141.836zm9.38 0c-3.472 0-5.389-2.752-5.389-6.383s1.902-6.368 5.389-6.368c3.473 0 5.389 2.723 5.389 6.368 0 3.631-1.916 6.383-5.389 6.383zm0-10.777c-1.931 0-2.882 1.729-2.882 4.366s.951 4.38 2.882 4.38 2.882-1.743 2.882-4.38-.951-4.366-2.882-4.366zm8.732-3.948c-.821 0-1.484-.634-1.484-1.412S23.035.908 23.856.908s1.484.634 1.484 1.412-.677 1.412-1.484 1.412zm-1.254 2.219h2.507v12.247h-2.507V5.951zm12.334 12.247v-8.169c0-1.426-.865-2.32-2.565-2.32-.908 0-1.743.158-2.248.36v10.143h-2.478V6.571c1.225-.504 2.795-.864 4.712-.864 3.429 0 5.086 1.498 5.086 4.092v8.414h-2.507m9.091.244c-1.585 0-3.156-.389-4.121-.864V.361h2.478v5.907c.591-.274 1.542-.504 2.392-.504 3.156 0 5.303 2.276 5.303 6.023 0 4.625-2.392 6.671-6.052 6.671zm.317-10.748c-.677 0-1.484.158-1.96.403v8.04c.36.159 1.066.317 1.772.317 1.974 0 3.429-1.369 3.429-4.495.014-2.68-1.253-4.265-3.242-4.265zm12.478 10.748c-3.516 0-5.303-1.426-5.303-3.847 0-3.415 3.631-4.02 7.334-4.222V9.61c0-1.542-1.023-2.089-2.594-2.089-1.153 0-2.565.36-3.386.749l-.634-1.7c.98-.432 2.637-.864 4.279-.864 2.925 0 4.712 1.138 4.712 4.164v7.723c-.879.475-2.68.864-4.409.864zm2.046-6.412c-2.507.13-5 .346-5 2.521 0 1.297.994 2.089 2.882 2.089.792 0 1.729-.13 2.118-.317v-4.294zm7.954 6.412c-1.426 0-2.925-.389-3.818-.864l.836-1.902c.634.389 1.974.792 2.911.792 1.34 0 2.233-.663 2.233-1.686 0-1.109-.937-1.542-2.176-2.003-1.643-.62-3.472-1.369-3.472-3.66 0-2.017 1.571-3.429 4.294-3.429 1.484 0 2.709.36 3.573.864L70.424 8.3a5.47 5.47 0 0 0-2.522-.72c-1.297 0-2.017.677-2.017 1.57 0 1.109.908 1.498 2.118 1.959 1.7.634 3.588 1.34 3.588 3.732-.014 2.176-1.7 3.617-4.769 3.617zm16.847-6.44l-8.141 1.138c.245 2.204 1.686 3.314 3.746 3.314 1.225 0 2.55-.303 3.386-.749l.72 1.859c-.951.504-2.594.865-4.279.865-3.862 0-6.023-2.478-6.023-6.383 0-3.746 2.089-6.368 5.519-6.368 3.184 0 5.072 2.089 5.072 5.389.029.303.029.62 0 .937zm-5.086-4.495c-1.902 0-3.156 1.455-3.199 4.006l5.937-.821c-.029-2.132-1.109-3.184-2.738-3.184z"/></svg>
